small/extra/apps/standard/google-navigator.svg

<?xml version="1.0" encoding="UTF-8" standalone="no"?>
<!-- Created with Inkscape (http://www.inkscape.org/) -->
<svg id="svg2" xmlns:rdf="http://www.w3.org/1999/02/22-rdf-syntax-ns#" xmlns="http://www.w3.org/2000/svg" height="100%" width="100%" version="1.1" xmlns:cc="http://creativecommons.org/ns#" viewBox="0 0 512 512" xmlns:dc="http://purl.org/dc/elements/1.1/">
 <metadata id="metadata71">
  <rdf:RDF>
   <cc:Work rdf:about="">
    <dc:format>image/svg+xml</dc:format>
    <dc:type rdf:resource="http://purl.org/dc/dcmitype/StillImage"/>
   </cc:Work>
  </rdf:RDF>
 </metadata>
 <defs id="defs4">
  <clipPath id="0">
   <path id="path7" d="m26 0c-14.397 0-26 11.603-26 26v460c0 14.397 11.603 26 26 26h460c14.397 0 26-11.603 26-26v-460c0-14.397-11.6-26-26-26h-460"/>
  </clipPath>
 </defs>
 <path id="path9" d="m26 0c-14.397 0-26 11.603-26 26v460c0 14.397 11.603 26 26 26h460c14.397 0 26-11.603 26-26v-460c0-14.397-11.6-26-26-26h-460" fill="#4498d5"/>
 <text id="text11" style="word-spacing:0;letter-spacing:0" font-size="129.23px" line-height="125%" y="-107.86" x="-87.830002" font-family="Gentium Book Basic">
  <tspan id="tspan13" y="-107.86" x="-87.830002"/>
 </text>
 <text id="text15" style="text-anchor:middle" transform="scale(4.0128 .2492)" font-size="46.954px" y="-781.96997" x="175.19" font-family="Arial"/>
 <text id="text17" style="word-spacing:0;letter-spacing:0" font-size="129.23px" line-height="125%" y="-187.86" x="493.44" font-family="Gentium Book Basic">
  <tspan id="tspan19" y="-187.86" x="493.44"/>
 </text>
 <text id="text21" style="text-anchor:middle" transform="scale(4.0128 .2492)" font-size="46.954px" y="-1102.99" x="320.04001" font-family="Arial"/>
 <text id="text23" style="word-spacing:0;letter-spacing:0" font-size="129.23px" line-height="125%" y="-369.12" x="-578.14001" font-family="Gentium Book Basic">
  <tspan id="tspan25" y="-369.12" x="-578.14001"/>
 </text>
 <text id="text27" style="text-anchor:middle" transform="scale(4.0128 .2492)" font-size="46.954px" y="-1830.35" x="53" font-family="Arial"/>
 <text id="text29" style="word-spacing:0;letter-spacing:0" font-size="129.23px" line-height="125%" y="-585.59003" x="519.90997" font-family="Gentium Book Basic">
  <tspan id="tspan31" y="-585.59003" x="519.90997"/>
 </text>
 <text id="text33" style="text-anchor:middle" transform="scale(4.0128 .2492)" font-size="46.954px" y="-2699.02" x="326.64001" font-family="Arial"/>
 <text id="text35" style="word-spacing:0;letter-spacing:0" font-size="129.23px" line-height="125%" y="-665.59998" x="1101.1801" font-family="Gentium Book Basic">
  <tspan id="tspan37" y="-665.59998" x="1101.1801"/>
 </text>
 <text id="text39" style="text-anchor:middle" transform="scale(4.0128 .2492)" font-size="46.954px" y="-3020.05" x="471.48999" font-family="Arial"/>
 <text id="text41" style="word-spacing:0;letter-spacing:0" font-size="129.23px" line-height="125%" y="-1138" x="712.06" font-family="Gentium Book Basic">
  <tspan id="tspan43" y="-1138" x="712.06"/>
 </text>
 <text id="text45" style="text-anchor:middle" transform="scale(4.0128 .2492)" font-size="46.954px" y="-4915.71" x="374.51999" font-family="Arial"/>
 <text id="text47" style="word-spacing:0;letter-spacing:0" font-size="129.23px" line-height="125%" y="-1218" x="1293.3199" font-family="Gentium Book Basic">
  <tspan id="tspan49" y="-1218" x="1293.3199"/>
 </text>
 <text id="text51" style="text-anchor:middle" transform="scale(4.0128 .2492)" font-size="46.954px" y="-5236.73" x="519.37" font-family="Arial"/>
 <text id="text53" style="word-spacing:0;letter-spacing:0" font-size="208.33px" line-height="125%" y="196.72" x="-539.47998" font-family="Gentium Book Basic">
  <tspan id="tspan55" y="196.72" x="-539.47998"/>
 </text>
 <g id="g57" opacity=".25" clip-path="url(#0)">
  <path id="path59" d="m256 41-183.24 430 353.55 353.55 183.24-430z"/>
  <path id="path61" d="m72.76 471 183.24-52.97 353.55 353.55-183.24 52.97z"/>
  <path id="path63" d="m256 418.03 183.24 52.97 353.55 353.55-183.24-52.97z"/>
  <path id="path65" d="m439.24 471-183.24-430l353.55 353.55 183.24 430z"/>
 </g>
 <path id="path67" d="m256 41-183.24 430 183.24-52.97 183.24 52.97-183.24-430" fill="#fff"/>
</svg>

<?xml version="1.0" encoding="UTF-8" standalone="no"?>
<!-- Created with Inkscape (http://www.inkscape.org/) -->

<svg
   xmlns:dc="http://purl.org/dc/elements/1.1/"
   xmlns:cc="http://creativecommons.org/ns#"
   xmlns:rdf="http://www.w3.org/1999/02/22-rdf-syntax-ns#"
   xmlns:svg="http://www.w3.org/2000/svg"
   xmlns="http://www.w3.org/2000/svg"
   xmlns:inkscape="http://www.inkscape.org/namespaces/inkscape"
   version="1.1"
   width="100%"
   height="100%"
   viewBox="0 0 512 512"
   id="svg2">
  <metadata
     id="metadata71">
    <rdf:RDF>
      <cc:Work
         rdf:about="">
        <dc:format>image/svg+xml</dc:format>
        <dc:type
           rdf:resource="http://purl.org/dc/dcmitype/StillImage" />
      </cc:Work>
    </rdf:RDF>
  </metadata>
  <defs
     id="defs4">
    <clipPath
       id="0">
      <path
         d="M 26,0 C 11.603,0 0,11.603 0,26 v 460 c 0,14.397 11.603,26 26,26 h 460 c 14.397,0 26,-11.603 26,-26 V 26 C 512,11.603 500.397,0 486,0 H 26"
         inkscape:connector-curvature="0"
         id="path7" />
    </clipPath>
  </defs>
  <path
     d="M 26,0 C 11.603,0 0,11.603 0,26 v 460 c 0,14.397 11.603,26 26,26 h 460 c 14.397,0 26,-11.603 26,-26 V 26 C 512,11.603 500.397,0 486,0 H 26"
     inkscape:connector-curvature="0"
     id="path9"
     style="fill:#4498d5" />
  <text
     x="-87.830002"
     y="-107.86"
     id="text11"
     style="font-size:129.22999573px;line-height:125%;letter-spacing:0;word-spacing:0;font-family:Gentium Book Basic">
    <tspan
       x="-87.830002"
       y="-107.86"
       id="tspan13" />
  </text>
  <text
     x="175.19"
     y="-781.96997"
     transform="scale(4.0128,0.2492)"
     id="text15"
     style="font-size:46.95399857px;text-anchor:middle;font-family:Arial" />
  <text
     x="493.44"
     y="-187.86"
     id="text17"
     style="font-size:129.22999573px;line-height:125%;letter-spacing:0;word-spacing:0;font-family:Gentium Book Basic">
    <tspan
       x="493.44"
       y="-187.86"
       id="tspan19" />
  </text>
  <text
     x="320.04001"
     y="-1102.99"
     transform="scale(4.0128,0.2492)"
     id="text21"
     style="font-size:46.95399857px;text-anchor:middle;font-family:Arial" />
  <text
     x="-578.14001"
     y="-369.12"
     id="text23"
     style="font-size:129.22999573px;line-height:125%;letter-spacing:0;word-spacing:0;font-family:Gentium Book Basic">
    <tspan
       x="-578.14001"
       y="-369.12"
       id="tspan25" />
  </text>
  <text
     x="53"
     y="-1830.35"
     transform="scale(4.0128,0.2492)"
     id="text27"
     style="font-size:46.95399857px;text-anchor:middle;font-family:Arial" />
  <text
     x="519.90997"
     y="-585.59003"
     id="text29"
     style="font-size:129.22999573px;line-height:125%;letter-spacing:0;word-spacing:0;font-family:Gentium Book Basic">
    <tspan
       x="519.90997"
       y="-585.59003"
       id="tspan31" />
  </text>
  <text
     x="326.64001"
     y="-2699.02"
     transform="scale(4.0128,0.2492)"
     id="text33"
     style="font-size:46.95399857px;text-anchor:middle;font-family:Arial" />
  <text
     x="1101.1801"
     y="-665.59998"
     id="text35"
     style="font-size:129.22999573px;line-height:125%;letter-spacing:0;word-spacing:0;font-family:Gentium Book Basic">
    <tspan
       x="1101.1801"
       y="-665.59998"
       id="tspan37" />
  </text>
  <text
     x="471.48999"
     y="-3020.05"
     transform="scale(4.0128,0.2492)"
     id="text39"
     style="font-size:46.95399857px;text-anchor:middle;font-family:Arial" />
  <text
     x="712.06"
     y="-1138"
     id="text41"
     style="font-size:129.22999573px;line-height:125%;letter-spacing:0;word-spacing:0;font-family:Gentium Book Basic">
    <tspan
       x="712.06"
       y="-1138"
       id="tspan43" />
  </text>
  <text
     x="374.51999"
     y="-4915.71"
     transform="scale(4.0128,0.2492)"
     id="text45"
     style="font-size:46.95399857px;text-anchor:middle;font-family:Arial" />
  <text
     x="1293.3199"
     y="-1218"
     id="text47"
     style="font-size:129.22999573px;line-height:125%;letter-spacing:0;word-spacing:0;font-family:Gentium Book Basic">
    <tspan
       x="1293.3199"
       y="-1218"
       id="tspan49" />
  </text>
  <text
     x="519.37"
     y="-5236.73"
     transform="scale(4.0128,0.2492)"
     id="text51"
     style="font-size:46.95399857px;text-anchor:middle;font-family:Arial" />
  <text
     x="-539.47998"
     y="196.72"
     id="text53"
     style="font-size:208.33000183px;line-height:125%;letter-spacing:0;word-spacing:0;font-family:Gentium Book Basic">
    <tspan
       x="-539.47998"
       y="196.72"
       id="tspan55" />
  </text>
  <g
     clip-path="url(#0)"
     id="g57"
     style="opacity:0.25">
    <path
       d="M 256,41 72.76,471 426.31,824.55 609.55,394.55 z"
       inkscape:connector-curvature="0"
       id="path59" />
    <path
       d="M 72.76,471 256,418.028 609.55,771.578 426.31,824.55 z"
       inkscape:connector-curvature="0"
       id="path61" />
    <path
       d="M 256,418.03 439.24,471.002 792.79,824.552 609.55,771.58 z"
       inkscape:connector-curvature="0"
       id="path63" />
    <path
       d="M 439.24,471 256,41 l 353.55,353.55 183.24,430 z"
       inkscape:connector-curvature="0"
       id="path65" />
  </g>
  <path
     d="M 256,41 72.757165,471 256,418.02804 439.24284,471 256,41"
     inkscape:connector-curvature="0"
     id="path67"
     style="fill:#ffffff" />
</svg>
